!!!OTL: AUFERSTEHN JA AUFERSTEHN
!!!ARE: Europa, Mitteleuropa, Deutschland
!!!SCT: B0779
!!!YEM: Copyright 1995, estate of Helmut Schaffrath.
**kern
*ICvox
*Ivox
*M3/4
*k[]
*C:
=1
{4G
4c
4A
=2
4G
4B
4c
=3
8.d
16f
4e
4d
=4
4c
4B}
{4c
=5
4A
4G
4c
=6
4A
4G
4F
=7
2E
4r}
=8
{4E
4c
8B
8A
=9
4G
4F#
4G}
=10
{4G
4A
4B
=11
8.c
16B
4d
4c
=12
4c
4B
8r}
{8c
=13
4d
4c
4B
=14
8.c
16d
4e
8r}
{8c
=15
4d
4c
4B
=16
2c
4r}
==
!!!AGN: Trost - Lied, Tod, Auferstehung, religioes
!!!ONB: ESAC (Essen Associative Code) Database: BOEHME
!!!AMT: simple triple
!!!AIN: vox
!!!EED: Helmut Schaffrath
!!!EEV: 1.0
*-
